build/img/5dev.svg

<svg width="83" height="22" viewBox="0 0 83 22" fill="none" xmlns="http://www.w3.org/2000/svg">
<path fill-rule="evenodd" clip-rule="evenodd" d="M8.6139 17.691L8.5845 17.6327L0 12.2444L3.05749 10.0308L5.5858 0.244385L8.6433 2.45798L18.8447 1.8172L17.6688 5.3706L21.4318 14.7784H17.6394L17.61 14.8075L9.76046 21.2444L8.6139 17.691Z" fill="white"/>
<path fill-rule="evenodd" clip-rule="evenodd" d="M8.61402 17.6029V17.6612L14.5526 14.7485L15.6698 14.7777H17.6101H17.6395L17.5219 13.9039L16.6987 8.28252L17.6689 5.39902H17.6395L17.5513 5.3699L11.1423 4.2631L8.64342 2.45728V2.4864L7.87905 3.88446L5.55653 8.25339L3.17521 9.97184L3.05762 10.0592L7.67325 14.7485L8.61402 17.6029Z" fill="#00AEEF"/>
<path fill-rule="evenodd" clip-rule="evenodd" d="M29.4319 14.5453V13.0308C30.0787 13.4676 30.7254 13.6715 31.3722 13.6715C32.0484 13.6715 32.5776 13.4968 32.9598 13.1764C33.3713 12.856 33.5771 12.39 33.5771 11.8366C33.5771 11.2832 33.3713 10.8754 32.9598 10.555C32.5482 10.2346 31.9602 10.089 31.1958 10.089C30.9312 10.089 30.4314 10.1181 29.7259 10.1764V5.10842H34.7531V6.44823H31.137V8.86571C31.431 8.83658 31.6956 8.83658 31.9602 8.83658C32.9892 8.83658 33.7829 9.09872 34.3709 9.62299C34.9295 10.1473 35.2235 10.8754 35.2235 11.7783C35.2235 12.7395 34.9001 13.4968 34.2533 14.0793C33.6065 14.6618 32.7246 14.9531 31.578 14.9531C30.6372 14.9531 29.9317 14.8075 29.4613 14.5453H29.4319ZM48.1884 5.10842L45.1603 11.8075C44.6017 13.0308 44.0432 13.8463 43.5434 14.2832C43.0142 14.7201 42.4556 14.9531 41.8382 14.9531C41.3385 14.9531 40.9269 14.8948 40.6035 14.7492V13.2055C40.9857 13.4385 41.3679 13.555 41.75 13.555C42.0734 13.555 42.3674 13.4385 42.632 13.2055C42.8966 12.9725 43.1906 12.5356 43.514 11.924L40.2507 5.13755H42.1028L44.102 9.71037C44.1314 9.79775 44.2196 10.0308 44.3372 10.4094C44.3372 10.3511 44.4254 10.1181 44.6017 9.71037L46.5127 5.13755H48.2178L48.1884 5.10842ZM54.7444 6.53561H50.9519V14.8075H49.335V5.13755H54.7444V6.53561ZM62.8879 14.8075V5.13755H57.5667C57.2727 7.43852 56.9787 9.27347 56.7435 10.6133C56.4789 11.9531 56.2437 12.7977 56.0085 13.1181C55.7733 13.4385 55.5088 13.5842 55.2442 13.5842C54.9796 13.5842 54.7444 13.5259 54.5092 13.4094V14.7783C54.8032 14.8948 55.156 14.924 55.5382 14.924C56.0085 14.924 56.4201 14.8075 56.7435 14.5744C57.0669 14.3414 57.3315 14.021 57.5373 13.555C57.7431 13.089 57.9195 12.39 58.1253 11.4288C58.3017 10.4676 58.5662 8.80745 58.919 6.47736H61.3004V14.7492H62.9173L62.8879 14.8075ZM69.3557 14.924C67.9445 14.924 66.8274 14.4871 65.9748 13.555C65.1222 12.6521 64.7106 11.4871 64.7106 10.0308C64.7106 8.48707 65.1516 7.23464 66.0042 6.3026C66.8568 5.37056 68.0327 4.90454 69.5027 4.90454C70.8844 4.90454 71.9722 5.34143 72.8247 6.24435C73.6479 7.14726 74.0889 8.31231 74.0889 9.76862C74.0889 11.3414 73.6479 12.5939 72.7953 13.4968C71.9428 14.3997 70.7962 14.924 69.3557 14.924ZM69.4439 6.3026C68.5619 6.3026 67.8269 6.62299 67.2683 7.29289C66.7098 7.96279 66.4158 8.83658 66.4158 9.91425C66.4158 10.9919 66.6804 11.8657 67.2389 12.5065C67.7681 13.1764 68.5031 13.4968 69.3851 13.4968C70.3258 13.4968 71.0608 13.1764 71.59 12.5647C72.1192 11.9531 72.4132 11.0793 72.4132 9.94338C72.4132 8.77833 72.1486 7.90454 71.6194 7.26376C71.0902 6.62299 70.3846 6.33173 69.4439 6.33173V6.3026ZM75.8822 14.7492V5.0793H78.9691C79.9099 5.0793 80.6449 5.28318 81.2034 5.69095C81.762 6.09872 82.0266 6.62299 82.0266 7.29289C82.0266 7.84629 81.8796 8.31231 81.5562 8.72008C81.2328 9.12784 80.8213 9.4191 80.2627 9.59386V9.62299C80.9389 9.71037 81.468 9.94338 81.8796 10.3511C82.2912 10.7589 82.4676 11.3123 82.4676 11.9822C82.4676 12.7977 82.1442 13.4676 81.4974 13.9919C80.8507 14.5162 79.9981 14.7492 78.9985 14.7492H75.8822ZM77.4992 6.36085V9.09872H78.5575C79.1161 9.09872 79.5571 8.95308 79.8805 8.69095C80.2039 8.42881 80.3509 8.05017 80.3509 7.58415C80.3509 6.76862 79.7923 6.33173 78.6751 6.33173H77.4992V6.36085ZM77.4992 10.3803V13.4385H78.8809C79.4689 13.4385 79.9393 13.2929 80.2921 13.0308C80.6155 12.7686 80.7919 12.3609 80.7919 11.8948C80.7919 10.9045 80.0863 10.3803 78.7045 10.3803H77.5286H77.4992Z" fill="white"/>
</svg>

<svg xmlns="http://www.w3.org/2000/svg" width="83" height="22" fill="none" fill-rule="evenodd"><path d="M8.614 17.69l-.03-.058L0 12.244l3.057-2.214L5.586.244l3.058 2.214 10.2-.64L17.67 5.37l3.763 9.408H17.64l-.03.03-7.85 6.437-1.147-3.553z" fill="#fff"/><path d="M8.614 17.603v.058l5.94-2.913 1.117.03h1.97l-.118-.874-.823-5.62.97-2.883h-.03l-.088-.03-6.41-1.107-2.5-1.806v.03L7.88 3.884l-2.323 4.37-2.5 1.806 4.616 4.69.94 2.854z" fill="#00aeef"/><path d="M29.432 14.545V13.03c.647.437 1.294.64 1.94.64.676 0 1.205-.175 1.588-.495.41-.32.617-.786.617-1.34s-.206-.96-.617-1.282-1-.466-1.764-.466c-.265 0-.764.03-1.47.087V5.108h5.027v1.34h-3.616v2.417c.294-.03.56-.03.823-.03 1.03 0 1.823.262 2.41.786.56.524.853 1.252.853 2.155 0 .96-.323 1.72-.97 2.3s-1.53.874-2.675.874c-.94 0-1.646-.146-2.117-.408h-.03zm18.757-9.437l-3.028 6.7c-.56 1.223-1.117 2.04-1.617 2.476-.53.437-1.088.67-1.705.67-.5 0-.91-.058-1.235-.204v-1.544c.382.233.764.35 1.147.35.323 0 .617-.117.882-.35s.56-.67.882-1.282L40.25 5.138h1.852l2 4.573.235.7c0-.058.088-.29.264-.7l1.91-4.573h1.705l-.03-.03zm6.556 1.427h-3.792v8.272h-1.617v-9.67h5.41v1.398zm8.144 8.272v-9.67h-5.32l-.823 5.476c-.265 1.34-.5 2.184-.735 2.505s-.5.466-.764.466-.5-.058-.735-.175v1.37c.294.117.647.146 1.03.146.47 0 .882-.117 1.205-.35s.588-.553.794-1.02.382-1.165.588-2.126l.794-4.95h2.38v8.272h1.617l-.03.058zm6.468.117c-1.41 0-2.528-.437-3.38-1.37-.853-.903-1.264-2.068-1.264-3.524 0-1.544.44-2.796 1.294-3.728s2.03-1.398 3.5-1.398c1.382 0 2.47.437 3.322 1.34.823.903 1.264 2.068 1.264 3.524 0 1.573-.44 2.825-1.294 3.728s-2 1.427-3.44 1.427zm.088-8.62c-.882 0-1.617.32-2.176 1s-.852 1.544-.852 2.62.265 1.95.823 2.592c.53.67 1.264 1 2.146 1 .94 0 1.676-.32 2.205-.932s.823-1.485.823-2.62c0-1.165-.265-2.04-.794-2.68s-1.235-.932-2.175-.932v-.03zm6.438 8.447V5.08h3.087c.94 0 1.676.204 2.234.612s.823.932.823 1.602c0 .553-.147 1.02-.47 1.427a2.56 2.56 0 0 1-1.294.874v.03c.676.087 1.205.32 1.617.728s.588.96.588 1.63c0 .816-.323 1.485-.97 2s-1.5.757-2.5.757h-3.116zM77.5 6.36V9.1h1.058c.56 0 1-.146 1.323-.408s.47-.64.47-1.107c0-.816-.56-1.252-1.676-1.252H77.5v.03zm0 4.02v3.058h1.382c.588 0 1.058-.146 1.41-.408.323-.262.5-.67.5-1.136 0-1-.706-1.514-2.087-1.514H77.5z" fill="#fff"/></svg>
